X:1
T:James Gibb editions
T:Thou, who dost build for us on high - Barnby
%%score [ ( 1 2 ) ( 3 4 ) ]
L:1/8
Q:1/4=69
M:4/4
K:G
V:1 treble nm="Midi_74"
V:2 treble 
V:3 bass nm="Midi_74"
V:4 bass 
V:1
"^88. 64""^Isaac Williams\n(1802-65)""^Thou, who dost build for us on high""^Joseph Barnby\n(1838-96)" B2 A2 G2 | %1
 d2 c2 B2 A2 | B2 || B2 ^c2 d2 | G2 F2 E2 E2 | D2 || D2 G2 A2 | B2 c2 d2 || e2 | d4 A4 | B8 || %11
 c4 B4 |] %12
V:2
 D2 D2 D2 | D2 D2 F2 F2 | G2 || F2 E2 D2 | E2 D2 D2 ^C2 | D2 || D2 D2 F2 | G2 F2 G2 || G2 | G4 F4 | %10
 G8 || E4 D4 |] %12
V:3
 D2 C2 B,2 | A,2 A,2 B,2 C2 | B,2 || %3
"^1. Thou, who dost build for us on high\nA house beyond the shining sky:\nDraw us to Thee above\nWith cords of love.\n\n2. Thou source of good, most gracious Lord;\nThyself shall be our great reward:\nWe wake from life's brief night\nTo endless light.\n\n3. Then shall we see Thee as Thou art,\nWith open face and joyful heart,\nAnd love Thee and adore\nThee evermore.\n\n4. If Thou dost love us, leave us not;\nBut send down from that pure calm spot\nThe Holy Ghost to prove\nThy fostering love.\n\n5. Thou, who shalt come our Judge to be,\nJesu, all  glory be to Thee:\nSave us, we humbly pray,\nIn that great day.  Amen. \n" D2 A,2 A,2 | %4
 A,2 A,2 B,2 A,G, | F,2 || F,2 G,2 C2 | B,2 A,2 D2 || CB, | A,6 C2 | B,8 || G,4 G,4 |] %12
V:4
 G,2 G,2 G,2 | F,2 F,2 D,2 D,2 | G,2 || G,2 G,2 F,2 | ^C,2 D,2 G,,2 A,,2 | D,2 || =C,2 B,,2 A,,2 | %7
 G,,2 A,,2 B,,2 || C,2 | D,4 D,4 | G,,8 || C,4 G,,4 |] %12

